X:9838
T:Lord Drummond
R:Reel
S:Johnny Cunningham
H:
N:
D:
Z:Adrian Scahill
M:4/4
L:1/8
K:D
Addc B2Ad|BABd edef|Addc B2AF|EDEF D2D2:||\
abaf defd|gagf efge|abaf defd|egfe d2d2:||\


